dist/img/google-play.svg

<svg width="32" height="34" viewBox="0 0 32 34" fill="none" xmlns="http://www.w3.org/2000/svg">
<path d="M5.51467 0.433303C4.63876 -0.0939679 3.59484 -0.141117 2.68441 0.297833L17.9494 15.5953L22.9405 10.5809L5.51467 0.433303ZM1.28189 1.71363C1.08931 2.12137 0.985718 2.57493 0.985718 3.04177V31.0243C0.985718 31.4931 1.08998 31.9401 1.28455 32.3392L16.5435 17.0078L1.28189 1.71363ZM17.9514 18.4183L2.71104 33.731C3.11545 33.9183 3.54577 34 3.97542 34C4.50601 34 5.03528 33.8732 5.51473 33.585L22.9439 23.422L17.9514 18.4183ZM29.5773 14.4458C29.5713 14.4418 29.5647 14.4379 29.5587 14.4345L24.7203 11.6169L19.3566 17.0058L24.7236 22.3841C24.7236 22.3841 29.5713 19.5578 29.5773 19.5545C30.4771 19.008 31.0143 18.053 31.0143 16.9998C31.0143 15.9466 30.4771 14.9917 29.5773 14.4458Z" fill="white"/>
</svg>

<svg width="32" height="34" fill="none" xmlns="http://www.w3.org/2000/svg"><path d="M5.515.433a2.95 2.95 0 00-2.83-.135l15.264 15.297 4.991-5.014L5.515.433zm-4.233 1.28a3.11 3.11 0 00-.296 1.329v27.982c0 .47.104.916.299 1.315l15.259-15.331L1.282 1.714zm16.67 16.705L2.71 33.731A2.99 2.99 0 003.975 34c.531 0 1.06-.127 1.54-.415l17.429-10.163-4.993-5.004zm11.625-3.972a.308.308 0 00-.018-.011l-4.839-2.818-5.363 5.389 5.367 5.378 4.853-2.83A2.967 2.967 0 0031.014 17a2.965 2.965 0 00-1.437-2.554z" fill="#fff"/></svg>
